X:177
T:Two For One THO4.177
M:6/8
L:1/8
Z:vmp. Peter Dunk 2010/11.from a transcription by Fynn Titford-Mock 2007
B:Thompson's Compleat Collection of 200 Favourite Country Dances Volume IV.
Q:3/8=100
K:G
g/a/|bgg g2 b|afd d2 e/f/|gfe dcB|ABc BAG|\
bgg g2 b|afd d2g|fed Ad^c|d3 D2:|
|:B/c/|dBc dge|dcB c2 A/B/|cAB cde|edc B3|\
BGA Bcd|egf g2 c|BAG DGF|G3-G2:|
